!!!COM: Palestrina, Giovanni Perluigi da
!!!OPR: Missa Dies sanctificatus
!!!OMD: Gloria
!!!OTL: coda
**kern	**kern	**kern	**kern
*Ibass	*Itenor	*Icalto	*Icant
!Bassus	!Tenor	!Altus	!Cantus
*clefF4	*clefGv2	*clefG2	*clefG2
*k[]	*k[]	*k[]	*k[]
*G:mix	*G:mix	*G:mix	*G:mix
*M3/2	*M3/2	*M3/2	*M3/2
=102	=102	=102	=102
2E	2e	2g	2b
2E	2e	2g	2b
2A	2e	2a	2cc
=103	=103	=103	=103
1G	1g	1b	1dd
2r	2c	2cc	[2ee
=104	=104	=104	=104
1r	2e	2b	2ee]
.	2f	2.a	2dd
2r	2g	.	2b
.	.	4g	.
=105	=105	=105	=105
1r	2c	1g	2cc
.	1d	.	1a
2r	.	2f#	.
=106	=106	=106	=106
2G	2B	1g	1g
2G	2B	.	.
2C	2c	2r	2r
=107	=107	=107	=107
1G	1.d	2g	2b
.	.	2g	2b
2r	.	2c	2cc
=108	=108	=108	=108
2G	2B	1.g	1dd
2G	2B	.	.
2C	2c	.	2ee
=109	=109	=109	=109
1G	1d	1g	4b
.	.	.	4cc
.	.	.	4dd
.	.	.	4b
2C	[2e	2g	2cc
=110	=110	=110	=110
2E	2e]	2g	2b
2F	2c	4f	2.a
.	.	4e	.
2G	2B	2d	.
.	.	.	4g
=111	=111	=111	=111
2C	2c	2e	1g
1D	1A	1d	.
.	.	.	2f#
=112	=112	=112	=112
1.G	1.B	1.d	1.g
==	==	==	==
*-	*-	*-	*-
!!!CDT: 1525/^1526/-1594/2/2
!!!OCY: Italia
!!!AGN: Mass (Parody)
!!!AST: renaissance, vocal
!!!ASW: Motet 1563 (Palestrina)
!!!PWK: Masses, Book 6
!!!RNB: Cadence finals: D,A,C
!!!YOR: Le Opere Complete, v. 21, p. 1
!!!YOO: Rome, Italy: Fratelli Scalera
!!!END: 1992//
!!!EED: John Miller
!!!YEC: Copyright 2000, John Miller
!!!YEN: United States of America
!!!YEM: Rights to all derivative electronic formats reserved.
!!!YEM: Refer to licensing agreement for further details.
!!!YEM: This file must be accompanied by the licensing agreement.
!!!YEM: A copy of the licensing agreement may be found at http://www.music-cog.ohio-state.edu/HumdrumDatabases/Palestrina/license.txt
!!!EMD: converted to Humdrum by Bret Aarden
